!!!!SEGMENT: pl-sa--552-a-ix-32--024_pleyel-ignace-andante.krn
!!!id: 18xx:535
!!!COM: Pleyel, Ignace
!!!OTL: Andante
!!!PDT:
!!!SMS-siglum: PL-SA
!!!SMS-shelfmark: 552/A IX 32
!!!NIFC-rismID: 1001069548
!!!URL-scan: http://bc.bdsandomierz.pl/dlibra/publication/1308/edition/1276/content
!!!ONB-nifc: Str. 13, s. 4-5
!!!SMS-variant:
!!!SMS-altvar:
**kern	**kern
*part1	*part1
*staff2	*staff1
*I'keyb	*
*clefF4	*clefG2
*k[b-e-]	*k[b-e-]
*M2/4	*M2/4
=1	=1
!	!LO:TX:a:i:t=Andan
!LO:TX:a:t=P:problem:metrum tylko na dolnej pięciolinii z kreską ułamkową	!LO:TX:t=P:problem:napis "Andan" przed akoladą
!LO:TX:t=P:problem:kolejność znaków: E-, BB-	!LO:TX:t=P:problem:kolejność znaków: ee-, b-
8r	8b-L 8d/
8B-\L	8b-J 8d/
8A\	8ccL 8f/
8F\J	8ccJ 8f/
=2	=2
!LO:TX:t=P:problem:mixed beam	!
8BB-/L	8ddL 8b-\
8B-\	8ddJ 8b-\
8A\	4cc 4a\
8F\J	.
=3	=3
*clefG2	*
!	!LO:TX:a:t=|:problem
8eee-\L	8ee-\L 8cc\
!	!LO:TX:a:t=|:problem
8ddd\	8dd\ 8b-\
!	!LO:TX:a:t=|:problem
8ccc\	8cc\ 8a\
!	!LO:TX:a:t=|:problem
8bb-\J	8b-\J 8g\
=4	=4
*clefF4	*
!LO:TX:t=P:problem:mixed beam	!
8F\L	8aL 8f/
8BB-/J	8b-J 8d/
!LO:TX:t=P:problem:mixed beam	!
8F\L	8ddL 8b-\
8FF/J	8ccJ 8g\
=5	=5
8r	8b-L 8d/
8B-\L	8b-J 8d/
8A\	8ccL 8a 8f/
8F\J	8ccJ 8f/
=6	=6
!LO:TX:t=P:problem:mixed beam	!
8BB-/L	8ddL 8b-\
8B-\	8ddJ 8b-\
8A\	4cc 4a\
8F\J	.
=7	=7
*clefG2	*
!	!LO:TX:a:t=|:problem
8eee-\L	8ee-\L 8cc\
!	!LO:TX:a:t=|:problem
8ddd\	8dd\ 8b-\
!	!LO:TX:a:t=|:problem
8ccc\	8cc\ 8a\
!	!LO:TX:a:t=|:problem
8bb-\J	8b-\J 8g\
=8	=8
*clefF4	*
!LO:TX:t=P:problem:mixed beam	!
8F\L	8ccL 8a/
8FF/J	8aJ 8f/
!LO:TX:t=P:problem:mixed beam	!
8BB-/L	4b-/ 4d/
8B-\J	.
=9:|!	=9:|!
8fL 8d\	8ffL 8dd\
8fJ 8d\	8ffJ 8dd\
8dL 8B-\	8ddL 8b-\
8dJ 8B-\	8ddJ 8b-\
=10	=10
8e-L 8c\	8ee-L 8cc\
8e-J 8c\	8ee-J 8cc\
4c 4A\	4cc 4a/
=11	=11
8dL 8B-\	8ddL 8b-\
8f 8d\	8ff 8dd\
8e- 8c\	8ee- 8cc\
8dJ 8B-\	8ddJ 8b-\
!!LO:LB:g=original
=12	=12
8cL 8F\	8ccL 8a\
8dJ 8B-\	8ddJ 8b-\
4c 4F\	4cc 4a\
=13	=13
8r	8b-L 8d/
8B-\L	8b-J 8d/
8A\	8ccL 8f/
8F\J	8ccJ 8f/
=14	=14
!LO:TX:t=P:problem:mixed beam	!
8BB-/L	8ddL 8b-\
8B-\J	8ee-J 8b-\
8AL 8F\	4cc 4f 4d/
8F\J	.
=15	=15
8g\L	8ee-L 8cc\
8f\J	8dd 8b-\
8e-\L	8cc 8a\
8d\J	8b-J 8g\
=16	=16
!LO:TX:t=P:problem:mixed beam	!
8F\L	8ccL 8a/
8FF/J	8aJ 8f/
!LO:TX:t=P:problem:mixed beam	!
8B-\L	4b- 4d/
8BB-/J	.
=:|!	=:|!
*-	*-
!!!system-decoration: {(s1,s2)}
!!!RDF**kern: > = above
!!!RDF**kern: < = below
!!!ENC: Tomasz Grochalski
!!!END: 2020-06-18
!!!EED: Mateusz Mrugas
!!!EST: 2020-12-12
